X:1
T: The Duke of Gordon's Reel (A Strathspey)
C:William Marshall
R:Strathspey
Q: 128
K:D
M:4/4
L:1/16
|:Bc|d3D F3D A2D2 F2D2|B3D F3D EEE2 E2Bc|d3D F3D A2D2 F2D2|d3f e3f ddd2 d2Bc|
d3D F3D A2D2 F2D2|B3D F3D EEE2 E2Bc|d3D F3D A2D2 F2D2|d3f e3f ddd2 d2fg|
a3f df3 A2d2 F2D2|G2B2 F2A2 EEE2 E2g2|agfe d3f Ad3 F3D|G3B A3c ddd2 d2fg|
a3f df3 A3d F3A|G3B F3A E3F GE3|D3F E3G F3A G3B|A3F G3E DDD2 D2:|
